icons/op-code-tag-24.svg

<svg width="24" height="24" viewBox="0 0 24 24" fill="none" xmlns="http://www.w3.org/2000/svg">
<path d="M14.7188 17C14.4375 17 14.1562 16.8619 13.9688 16.5857C13.5938 16.137 13.6562 15.4465 14.0625 15.0323L17.4375 11.8218L14.0938 8.99107C13.6562 8.61133 13.5938 7.92091 13.9375 7.43761C14.25 6.95431 14.9062 6.85075 15.3125 7.23048L19.625 10.9243C19.8438 11.1314 20 11.4421 20 11.7528C20 12.098 19.875 12.4087 19.6562 12.6158L15.375 16.7238C15.1875 16.8964 14.9375 17 14.7188 17ZM9.28125 17C9.0625 17 8.8125 16.8964 8.625 16.7238L4.34375 12.6158C4.125 12.4087 4 12.098 4 11.7528C4 11.4421 4.15625 11.1314 4.375 10.9243L8.6875 7.23048C9.09375 6.85075 9.75 6.95431 10.0625 7.43761C10.4062 7.92091 10.3438 8.61133 9.90625 8.99107L6.5625 11.8218L9.9375 15.0323C10.3438 15.4465 10.4062 16.137 10.0312 16.5857C9.84375 16.8619 9.5625 17 9.28125 17Z" fill="black"/>
</svg>

<svg xmlns="http://www.w3.org/2000/svg" width="24" height="24" viewBox="0 0 24 24"><path d="M14.719 17a.905.905 0 0 1-.75-.414c-.375-.449-.313-1.139.093-1.554l3.376-3.21-3.344-2.831c-.438-.38-.5-1.07-.156-1.553.312-.484.968-.587 1.374-.208l4.313 3.694c.219.207.375.518.375.829 0 .345-.125.656-.344.863l-4.281 4.108a1.018 1.018 0 0 1-.656.276Zm-5.438 0c-.219 0-.469-.104-.656-.276l-4.281-4.108c-.219-.207-.344-.518-.344-.863 0-.311.156-.622.375-.829L8.688 7.23c.406-.379 1.062-.276 1.374.208.344.483.282 1.173-.156 1.553l-3.344 2.831 3.376 3.21c.406.415.468 1.105.093 1.554a.905.905 0 0 1-.75.414Z"/></svg>
